X: 1791
T:McFarley's
S:irtrad-l, C.Walshaw, 4/95
D:Paddy Glackin - In Full Spate
D:Altan - Harvest Storm
M:4/4
L:1/8
E:7
K:D
(3ABc|d~D3 EDB,D|D2FA BAFA|dDcD BDAD|D2FA BAFA|\
d~D3 EDB,D|D2FA BAFA|(3Bcd ec dBAF|EDEF D2:|
ag|fgab afdg|fdad bdaf|efga ge=cf|e=cgc acge|\
fgaf bfaf|gfeg fdBc|defd edBd|AFEF D2:|
